src/platform/plugins/shared/custom_integrations/public/assets/language_clients/dotnet.svg

<svg width="128" height="128" viewBox="0 0 128 128" fill="none" xmlns="http://www.w3.org/2000/svg">
<path d="M128 0H0V128H128V0Z" fill="#512BD4"/>
<path d="M22.8137 81.7777C21.9087 81.7777 21.1394 81.4762 20.5059 80.873C19.8723 80.2543 19.5555 79.5197 19.5555 78.6692C19.5555 77.8029 19.8723 77.0608 20.5059 76.4421C21.1394 75.8234 21.9087 75.5141 22.8137 75.5141C23.7339 75.5141 24.5107 75.8234 25.1443 76.4421C25.7929 77.0608 26.1172 77.8029 26.1172 78.6692C26.1172 79.5197 25.7929 80.2543 25.1443 80.873C24.5107 81.4762 23.7339 81.7777 22.8137 81.7777Z" fill="white"/>
<path d="M58.9942 81.2674H53.1112L37.6123 56.8157C37.2201 56.1971 36.8956 55.5551 36.6394 54.8901H36.5035C36.6242 55.6017 36.6846 57.1251 36.6846 59.4602V81.2674H31.4803V48H37.7479L52.7267 71.8717C53.3602 72.8618 53.7675 73.5422 53.9486 73.9133H54.0389C53.8882 73.0319 53.8127 71.5394 53.8127 69.4358V48H58.9942V81.2674Z" fill="white"/>
<path d="M84.3365 81.2674H66.1223V48H83.6126V52.6863H71.5076V62.105H82.6624V66.768H71.5076V76.6044H84.3365V81.2674Z" fill="white"/>
<path d="M110.222 52.6863H100.9V81.2674H95.5149V52.6863H86.2156V48H110.222V52.6863Z" fill="white"/>
</svg>

<svg xmlns="http://www.w3.org/2000/svg" width="128" height="128" fill="none"><path fill="#512BD4" d="M128 0H0v128h128z"/><path fill="#fff" d="M22.814 81.778q-1.358 0-2.308-.905-.95-.928-.95-2.204 0-1.299.95-2.227t2.308-.928q1.38 0 2.33.928.973.927.973 2.227 0 1.275-.973 2.204-.95.905-2.33.905M58.994 81.267h-5.883L37.612 56.816a11 11 0 0 1-.973-1.926h-.136q.182 1.068.182 4.57v21.807H31.48V48h6.268l14.979 23.872q.95 1.485 1.222 2.041h.09q-.226-1.322-.226-4.477V48h5.181zM84.337 81.267H66.122V48h17.49v4.686H71.509v9.419h11.154v4.663H71.508v9.836h12.829zM110.222 52.686H100.9v28.581h-5.385v-28.58h-9.3V48h24.007z"/></svg>
